svg/logo/viber_messenger_line.svg

<?xml version="1.0" encoding="UTF-8"?>
<svg width="24px" height="24px" viewBox="0 0 24 24" version="1.1" xmlns="http://www.w3.org/2000/svg" xmlns:xlink="http://www.w3.org/1999/xlink">
    <title>viber_messenger_line</title>
    <g id="Icon" stroke="none" stroke-width="1" fill="none" fill-rule="evenodd">
        <g id="Logo" transform="translate(-912.000000, -192.000000)" fill-rule="nonzero">
            <g id="viber_messenger_line" transform="translate(912.000000, 192.000000)">
                <path d="M24,0 L24,24 L0,24 L0,0 L24,0 Z M12.5935,23.2578 L12.5819,23.2595 L12.5109,23.295 L12.4919,23.2987 L12.4767,23.295 L12.4057,23.2595 C12.3958,23.2564 12.387,23.259 12.3821,23.2649 L12.378,23.2758 L12.3609,23.7031 L12.3659,23.7235 L12.3769,23.7357 L12.4805,23.8097 L12.4953,23.8136 L12.5071,23.8097 L12.6107,23.7357 L12.6233,23.7197 L12.6267,23.7031 L12.6096,23.2758 C12.6076,23.2657 12.601,23.2593 12.5935,23.2578 Z M12.8584,23.1453 L12.8445,23.1473 L12.6598,23.2397 L12.6499,23.2499 L12.6472,23.2611 L12.6651,23.6906 L12.6699,23.7034 L12.6784,23.7105 L12.8793,23.8032 C12.8914,23.8069 12.9022,23.803 12.9078,23.7952 L12.9118,23.7812 L12.8777,23.1665 C12.8753,23.1546 12.8674,23.147 12.8584,23.1453 Z M12.143,23.1473 C12.1332,23.1424 12.1222,23.1453 12.1156,23.1526 L12.1099,23.1665 L12.0758,23.7812 C12.0751,23.7927 12.0828,23.8019 12.0926,23.8046 L12.1083,23.8032 L12.3092,23.7105 L12.3186,23.7024 L12.3225,23.6906 L12.3404,23.2611 L12.3372,23.2485 L12.3278,23.2397 L12.143,23.1473 Z" id="MingCute"></path>
                <path d="M9.36509,3.10769 C11.461,2.9908 13.5391,2.9908 15.635,3.10769 L16.2670787,3.14422029 C17.479,3.21992245 18.3904,3.32882857 19.2334,3.78332 C20.0446,4.22066 20.8329,5.0112 21.2681,5.82355 C21.7956,6.80836 21.8514,7.8652 21.9311,9.37196 C22.0065,10.7942 22.0065,12.2061 21.9311,13.6283 L21.8782801,14.5386867 C21.805826,15.5847082 21.6825643,16.4029286 21.2681,17.1767 C20.8329,17.9891 20.0446,18.7796 19.2334,19.2169 C18.2499,19.7472 17.1733,19.807 15.635,19.8926 C14.591,19.9508 13.5459,20.0001 12.5001,20.0001 L10.9540735,20.0051112 C10.5953652,20.004252 10.230142,20.00002 9.86557,19.9883 L7.62476,21.781 C7.32459,22.0211 6.91334,22.068 6.56687,21.9014 C6.22041,21.7349 6.00006,21.3845 6.00006,21.0001 L6.00006,19.3336 C5.92175,19.2974 5.84406,19.2586 5.76672,19.2169 C4.95557,18.7796 4.16719,17.9891 3.73206,17.1767 C3.20456,16.1919 3.14868,15.1351 3.06903,13.6283 C2.99359,12.2061 2.99359,10.7942 3.06903,9.37198 L3.1218336,8.46160271 C3.19428459,7.41558224 3.31759571,6.59732929 3.73206,5.82355 C4.16719,5.0112 4.95557,4.22066 5.76672,3.78332 C6.75019,3.25308 7.82683,3.19322 9.36509,3.10769 Z M15.3291,5.09374 C13.4392,4.98768 11.5609,4.98768 9.67098,5.09374 L8.72100344,5.15134968 C7.623198,5.2267804 7.151534,5.308862 6.71587,5.54375 C6.25021,5.79482 5.74487,6.30154 5.49508,6.76789 C5.20251,7.31408 5.15061,7.89809 5.05629,9.66507 C4.9909,10.8901 4.9909,12.1101 5.05629,13.3352 L5.09890957,14.0882288 C5.17299956,15.2856787 5.24870526,15.7724421 5.49508,16.2324 C5.74487,16.6987 6.25021,17.2054 6.71587,17.4565 C7.272,17.7564 8.00006,17.8094 8.00006,18.6304 L8.00006,18.9195 L8.90759,18.1935 C9.09775,18.0414 9.3369,17.9638 9.58014,17.9755 C10.06572,17.99875 10.55081,18.0049 11.036955,18.0052375 L12.5001,18.0001 C13.3479,18.0001 14.3369,17.9622 15.3291,17.9065 L16.0657607,17.8630076 C17.3178032,17.7831592 17.82139,17.70606 18.2843,17.4565 C18.7499,17.2054 19.2553,16.6987 19.505,16.2324 C19.7976,15.6862 19.8495,15.1022 19.9438,13.3352 C20.0092,12.1101 20.0092,10.8901 19.9438,9.66507 L19.9011884,8.91204865 C19.8271097,7.71460867 19.7514,7.22783947 19.505,6.76789 C19.2553,6.30154 18.7499,5.79482 18.2843,5.54375 C17.7397,5.25014 17.1388,5.19529 15.3291,5.09374 Z M8.96488,6.88482 C9.19291,6.78709 9.4691,6.80497 9.68744,6.96424 C10.4868,7.54735 11.0392,8.42896 11.5133,9.12263 C11.7275,9.43597 11.6763,9.8638 11.3854,10.1157 L10.4098,10.8402 C10.3131,10.912 10.2809,11.0425 10.3389,11.1481 C10.5597,11.5498 10.9529,12.1477 11.4029,12.5977 C11.8534,13.0482 12.4795,13.4668 12.9089,13.7124 C13.0202,13.7761 13.1603,13.7392 13.2307,13.632 L13.8654,12.6652 C14.1087,12.3413 14.5632,12.2706 14.8936,12.4992 C15.6584,13.0274 16.4411,13.558 17.0193,14.2984 C17.1901,14.5171 17.2155,14.8032 17.1136,15.0409 C16.6976,16.0115 15.6308,16.8484 14.535,16.808 L14.3736651,16.7988233 C13.5420315,16.7356956 11.631752,16.3573533 9.63748,14.3631 C7.50078,12.2264 7.21909,10.1861 7.19257,9.46563 C7.15198,8.36266 7.98792,7.30352 8.96488,6.88482 Z M13.5933,8.88737 C14.3044,9.13869 14.8662,9.70055 15.1176,10.4116 C15.3016,10.9323 15.0287,11.5036 14.508,11.6877 C14.0244,11.8585571 13.4972566,11.6354546 13.2770971,11.1858095 L13.2319,11.0781 C13.1919,10.96498 13.111132,10.869588 13.008028,10.8104072 L12.9268,10.7731 C12.4061,10.589 12.1332,10.0177 12.3172,9.49696 C12.5013,8.97625 13.0726,8.70332 13.5933,8.88737 Z M13.3172,6.66689 C13.5013,6.14617 14.0726,5.87325 14.5933,6.05729 C16.1568,6.6099 17.3942,7.84735 17.9469,9.41082 C18.1309,9.93154 17.858,10.5029 17.3373,10.6869 C16.8165,10.871 16.2452,10.598 16.0612,10.0773 C15.7099,9.08355 14.9206,8.29422 13.9268,7.94297 C13.4061,7.75893 13.1332,7.1876 13.3172,6.66689 Z" id="形状" fill="#09244B"></path>
            </g>
        </g>
    </g>
</svg>

<svg xmlns="http://www.w3.org/2000/svg" width="24" height="24"><g fill="none" fill-rule="nonzero"><path d="M24 0v24H0V0h24ZM12.594 23.258l-.012.002-.071.035-.02.004-.014-.004-.071-.036c-.01-.003-.019 0-.024.006l-.004.01-.017.428.005.02.01.013.104.074.015.004.012-.004.104-.074.012-.016.004-.017-.017-.427c-.002-.01-.009-.017-.016-.018Zm.264-.113-.014.002-.184.093-.01.01-.003.011.018.43.005.012.008.008.201.092c.012.004.023 0 .029-.008l.004-.014-.034-.614c-.003-.012-.01-.02-.02-.022Zm-.715.002a.023.023 0 0 0-.027.006l-.006.014-.034.614c0 .012.007.02.017.024l.015-.002.201-.093.01-.008.003-.011.018-.43-.003-.012-.01-.01-.184-.092Z"/><path fill="#09244B" d="M9.365 3.108a56.096 56.096 0 0 1 6.27 0l.632.036c1.212.076 2.123.185 2.966.64a5.311 5.311 0 0 1 2.035 2.04c.528.984.583 2.041.663 3.548a40.073 40.073 0 0 1 0 4.256l-.053.91c-.072 1.047-.195 1.865-.61 2.639a5.31 5.31 0 0 1-2.035 2.04c-.983.53-2.06.59-3.598.676-1.044.058-2.09.107-3.135.107l-1.546.005c-.359 0-.724-.005-1.088-.017l-2.241 1.793A1 1 0 0 1 6 21.001v-1.667a4.24 4.24 0 0 1-.233-.117 5.31 5.31 0 0 1-2.035-2.04c-.527-.985-.583-2.042-.663-3.549a40.052 40.052 0 0 1 0-4.256l.053-.91c.072-1.046.196-1.865.61-2.638a5.31 5.31 0 0 1 2.035-2.04c.983-.53 2.06-.59 3.598-.676Zm5.964 1.986a50.348 50.348 0 0 0-5.658 0l-.95.057c-1.098.076-1.57.158-2.005.393a3.325 3.325 0 0 0-1.22 1.224c-.293.546-.345 1.13-.44 2.897a34.357 34.357 0 0 0 0 3.67l.043.753c.074 1.198.15 1.684.396 2.144.25.467.755.973 1.22 1.224.557.3 1.285.353 1.285 1.174v.29l.908-.727a1 1 0 0 1 .672-.218c.486.024.97.03 1.457.03L12.5 18c.848 0 1.837-.038 2.83-.093l.736-.044c1.252-.08 1.755-.157 2.218-.407a3.325 3.325 0 0 0 1.221-1.224c.293-.546.345-1.13.439-2.897a34.351 34.351 0 0 0 0-3.67l-.043-.753c-.074-1.197-.15-1.684-.396-2.144a3.325 3.325 0 0 0-1.22-1.224c-.545-.294-1.146-.349-2.956-.45Zm-6.364 1.79a.735.735 0 0 1 .722.08c.8.583 1.352 1.465 1.826 2.159a.752.752 0 0 1-.128.993l-.975.724a.24.24 0 0 0-.071.308c.22.402.614 1 1.064 1.45.45.45 1.076.869 1.506 1.114a.242.242 0 0 0 .322-.08l.634-.967a.751.751 0 0 1 1.029-.166c.764.528 1.547 1.059 2.125 1.8.171.218.197.504.095.742-.416.97-1.483 1.807-2.579 1.767l-.161-.01c-.832-.062-2.742-.44-4.737-2.435-2.136-2.137-2.418-4.177-2.444-4.897-.041-1.103.795-2.162 1.772-2.581Zm4.628 2.003a2.504 2.504 0 0 1 1.525 1.525 1 1 0 0 1-1.84.774l-.046-.108a.505.505 0 0 0-.224-.268l-.081-.037a1 1 0 0 1 .666-1.886Zm-.276-2.22a1 1 0 0 1 1.276-.61 5.513 5.513 0 0 1 3.354 3.354 1 1 0 0 1-1.886.666 3.513 3.513 0 0 0-2.134-2.134 1 1 0 0 1-.61-1.276Z"/></g></svg>
